src/images/icons/clock-coins.svg

<?xml version="1.0" encoding="UTF-8"?>
<svg width="80px" height="84px" viewBox="0 0 80 84" version="1.1" xmlns="http://www.w3.org/2000/svg" xmlns:xlink="http://www.w3.org/1999/xlink">
    <!-- Generator: Sketch 51.2 (57519) - http://www.bohemiancoding.com/sketch -->
    <title>Group</title>
    <desc>Created with Sketch.</desc>
    <defs></defs>
    <g id="Page-3" stroke="none" stroke-width="1" fill="none" fill-rule="evenodd">
        <g id="Artboard-30" transform="translate(-25.000000, -14.000000)">
            <g id="Group" transform="translate(25.000000, 14.000000)">
                <path d="M48.6968,68.9922 L48.6968,56.2782 C48.6968,51.4522 41.8468,47.8122 32.7648,47.8122 C32.6598,47.8122 32.5578,47.8222 32.4518,47.8222 L32.4518,47.0202 C32.4518,42.1942 25.6018,38.5552 16.5218,38.5552 C14.4708,38.5552 12.5448,38.7492 10.7758,39.0922 C10.7078,38.2462 10.6608,37.3952 10.6608,36.5322 C10.6608,18.4052 25.4068,3.6582 43.5338,3.6582 C61.6608,3.6582 76.4068,18.4052 76.4068,36.5322 C76.4078,52.9012 64.3788,66.5082 48.6968,68.9922 Z M32.7658,61.7422 C32.6608,61.7422 32.5588,61.7362 32.4528,61.7342 L32.4528,50.8262 C32.5598,50.8242 32.6578,50.8122 32.7658,50.8122 C40.3868,50.8122 45.6978,53.6932 45.6978,56.2782 C45.6978,58.8632 40.3868,61.7422 32.7658,61.7422 Z M45.6968,63.2422 C45.6968,65.8272 40.3858,68.7072 32.7648,68.7072 C32.6578,68.7072 32.5558,68.6972 32.4518,68.6932 L32.4518,64.7342 C32.5558,64.7362 32.6588,64.7422 32.7648,64.7422 C38.2178,64.7422 42.8528,63.4252 45.6968,61.3322 L45.6968,63.2422 Z M45.6968,70.2072 C45.6968,72.7912 40.3858,75.6722 32.7648,75.6722 C32.6338,75.6722 32.5108,75.6622 32.3818,75.6602 C32.4228,75.4022 32.4518,75.1422 32.4518,74.8772 L32.4518,71.6952 C32.5558,71.6982 32.6568,71.7072 32.7648,71.7072 C38.2178,71.7072 42.8528,70.3892 45.6968,68.2972 L45.6968,70.2072 Z M16.5228,52.4842 C8.9018,52.4842 3.5908,49.6042 3.5908,47.0192 C3.5908,44.4352 8.9018,41.5542 16.5228,41.5542 C24.1418,41.5542 29.4528,44.4352 29.4528,47.0192 C29.4528,49.6002 23.9238,52.4842 16.5228,52.4842 Z M29.4528,53.9842 C29.4528,56.5642 23.9238,59.4492 16.5228,59.4492 C8.9018,59.4492 3.5908,56.5682 3.5908,53.9842 L3.5908,52.0742 C6.4348,54.1662 11.0698,55.4842 16.5228,55.4842 C21.9738,55.4842 26.6088,54.1662 29.4528,52.0742 L29.4528,53.9842 Z M29.4528,60.9492 C29.4528,63.5332 24.1418,66.4132 16.5228,66.4132 C8.9018,66.4132 3.5908,63.5332 3.5908,60.9492 L3.5908,59.0382 C6.4348,61.1312 11.0698,62.4492 16.5228,62.4492 C21.9738,62.4492 26.6088,61.1312 29.4528,59.0382 L29.4528,60.9492 Z M29.4528,67.9132 C29.4528,70.4982 24.1418,73.3772 16.5228,73.3772 C8.9018,73.3772 3.5908,70.4982 3.5908,67.9132 L3.5908,66.0022 C6.4348,68.0962 11.0698,69.4132 16.5228,69.4132 C21.9738,69.4132 26.6088,68.0962 29.4528,66.0022 L29.4528,67.9132 Z M29.4528,74.8772 C29.4528,77.4622 24.1418,80.3422 16.5228,80.3422 C8.9018,80.3422 3.5908,77.4622 3.5908,74.8772 L3.5908,72.9672 C6.4348,75.0602 11.0698,76.3772 16.5228,76.3772 C21.9738,76.3772 26.6088,75.0602 29.4528,72.9672 L29.4528,74.8772 Z M43.5348,0.6572 C23.7538,0.6572 7.6618,16.7502 7.6618,36.5312 C7.6618,37.6532 7.7338,38.7562 7.8398,39.8502 C3.4198,41.3212 0.5918,43.9232 0.5918,47.0192 L0.5918,74.8762 C0.5918,79.7022 7.4418,83.3412 16.5238,83.3412 C23.0508,83.3412 28.4108,81.4552 30.9168,78.6052 C31.5238,78.6402 32.1358,78.6712 32.7668,78.6712 C40.6358,78.6712 46.8198,75.9372 48.3328,72.0692 C65.8528,69.7152 79.4088,54.6822 79.4088,36.5302 C79.4078,16.7502 63.3158,0.6572 43.5348,0.6572 Z" id="Fill-1197" fill="#8C8C8C"></path>
                <polygon id="Fill-1199" fill="#7490B1" points="41.611 35 43.833 35 43.833 10 41.611 10"></polygon>
                <polygon id="Fill-1201" fill="#7490B1" points="41.611 35 66.611 35 66.611 32.778 41.611 32.778"></polygon>
            </g>
        </g>
    </g>
</svg>

<svg height="84" viewBox="0 0 80 84" width="80" xmlns="http://www.w3.org/2000/svg"><g fill="none" fill-rule="evenodd"><path d="m48.6968 68.9922v-12.714c0-4.826-6.85-8.466-15.932-8.466-.105 0-.207.01-.313.01v-.802c0-4.826-6.85-8.465-15.93-8.465-2.051 0-3.977.194-5.746.537-.068-.846-.115-1.697-.115-2.56 0-18.127 14.746-32.874 32.873-32.874s32.873 14.747 32.873 32.874c.001 16.369-12.028 29.976-27.71 32.46zm-15.931-7.25c-.105 0-.207-.006-.313-.008v-10.908c.107-.002.205-.014.313-.014 7.621 0 12.932 2.881 12.932 5.466s-5.311 5.464-12.932 5.464zm12.931 1.5c0 2.585-5.311 5.465-12.932 5.465-.107 0-.209-.01-.313-.014v-3.959c.104.002.207.008.313.008 5.453 0 10.088-1.317 12.932-3.41zm0 6.965c0 2.584-5.311 5.465-12.932 5.465-.131 0-.254-.01-.383-.012.041-.258.07-.518.07-.783v-3.182c.104.003.205.012.313.012 5.453 0 10.088-1.318 12.932-3.41zm-29.174-17.723c-7.621 0-12.932-2.88-12.932-5.465 0-2.584 5.311-5.465 12.932-5.465 7.619 0 12.93 2.881 12.93 5.465 0 2.581-5.529 5.465-12.93 5.465zm12.93 1.5c0 2.58-5.529 5.465-12.93 5.465-7.621 0-12.932-2.881-12.932-5.465v-1.91c2.844 2.092 7.479 3.41 12.932 3.41 5.451 0 10.086-1.318 12.93-3.41zm0 6.965c0 2.584-5.311 5.464-12.93 5.464-7.621 0-12.932-2.88-12.932-5.464v-1.911c2.844 2.093 7.479 3.411 12.932 3.411 5.451 0 10.086-1.318 12.93-3.411zm0 6.964c0 2.585-5.311 5.464-12.93 5.464-7.621 0-12.932-2.879-12.932-5.464v-1.911c2.844 2.094 7.479 3.411 12.932 3.411 5.451 0 10.086-1.317 12.93-3.411zm0 6.964c0 2.585-5.311 5.465-12.93 5.465-7.621 0-12.932-2.88-12.932-5.465v-1.91c2.844 2.093 7.479 3.41 12.932 3.41 5.451 0 10.086-1.317 12.93-3.41zm14.082-74.22c-19.781 0-35.873 16.093-35.873 35.874 0 1.122.072 2.225.178 3.319-4.42 1.471-7.248 4.073-7.248 7.169v27.857c0 4.826 6.85 8.465 15.932 8.465 6.527 0 11.887-1.886 14.393-4.736.607.035 1.219.066 1.85.066 7.869 0 14.053-2.734 15.566-6.602 17.52-2.354 31.076-17.387 31.076-35.539-.001-19.78-16.093-35.873-35.874-35.873z" fill="#8c8c8c"/><g fill="#7490b1"><path d="m41.611 35h2.222v-25h-2.222z"/><path d="m41.611 35h25v-2.222h-25z"/></g></g></svg>
